!!!COM:	la Rue, Pierre de
!!!CDT:	~1452///-1518/11/20
!!!OPR:	Missa Nunca fu&eacute; pena mayor
!!!ONM:	1
!!!OTL:	Kyrie
!!!AGN:	Mass; Kyrie
!!!SCT:	Rue1020a
!!!SCA:	Rue1020a
!!!voices:	4
!!!voices-OPR:	4
**kern	**kern	**kern	**kern
*staff4	*staff3	*staff2	*staff1
*Ivox	*Ivox	*Ivox	*Ivox
*I"Bassus	*I"Tenor	*I"Contra	*I"Discantus
*I'B	*I'T	*I'C	*I'D
*>[A,B,C]	*>[A,B,C]	*>[A,B,C]	*>[A,B,C]
*>A	*>A	*>A	*>A
*clefF4	*clefGv2	*clefGv2	*clefG2
*k[]	*k[]	*k[]	*k[]
*M3/1	*M3/1	*M3/1	*M3/1
*met(O)	*met(O)	*met(O)	*met(O)
!!section: Kyrie I
!!!OMD: Kyrie I
=1-	=1-	=1-	=1-
0.r	0.r	1E	0.r
.	.	0G	.
=2	=2	=2	=2
0.r	0.r	1A	1r
.	.	1B	1r
.	.	2B\	1g
.	.	[2c\	.
=3	=3	=3	=3
1r	0.r	4c\]	1a
.	.	4B\	.
.	.	2.d\	.
1r	.	.	0b
.	.	4c\	.
.	.	4B\	.
.	.	4A/	.
1E	.	2.G#i/	.
.	.	4F#i/	.
=4	=4	=4	=4
1AA	[0.e	1A	1.cc
0E	.	1r	.
.	.	.	1b
.	.	1B	.
.	.	.	2g/
=5	=5	=5	=5
2AA/	0.e]	1.c	2a/
2.C/	.	.	4g/
.	.	.	4f/
.	.	.	1e
4D\	.	.	.
4E\	.	1B	.
4F\	.	.	.
2G\	.	.	1r
2E\	.	2G/	.
=6	=6	=6	=6
2F\	0.c	2A/	1r
4E\	.	4G/	.
4D\	.	4F/	.
0C	.	2E/	1.g
.	.	1e	.
.	.	2e\	2a/
=7	=7	=7	=7
1G	0d	2d\	1b
.	.	2g\	.
1D	.	2r	1a
.	.	2f\	.
2r	1A	2e\	2r
2A\	.	2f\	2cc\
=8	=8	=8	=8
2G\	0e	2g\	2b\
2.A\	.	2c\	1cc
.	.	2A/	.
4G\	.	.	.
1E	.	2B\	4b\
.	.	.	4a/
.	1e	2c\	4g/
.	.	.	4a/
4D\	.	[2A/	4b\
4C/	.	.	4cc\
=9	=9	=9	=9
1BB	1d	2A/]	2.dd\
.	.	2G#i/	.
.	.	.	4ee\
1AA	2.c\	1A	2ff\
.	.	.	2.ee\
.	4d\	.	.
2r	2e\	1c	.
.	.	.	4dd\
2A\	[2f\	.	4cc\
.	.	.	4b\
=10	=10	=10	=10
2G\	4f\]	2B\	2dd\
.	4e\	.	.
2E\	1e	2G/	4cc\
.	.	.	2b\
1F	.	1A	.
.	.	.	4a/
.	2d\	.	1a
1E	1e	1B	.
.	.	.	2g#i/
=11	=11	=11	=11
2r	0.r	1A	1a
2C/	.	.	.
2D\	.	2r	1r
2E\	.	2G/	.
2F\	.	2A/	1r
2E\	.	2B\	.
=12	=12	=12	=12
2A\	1r	2c\	1r
4G\	.	2B\	.
4E\	.	.	.
2F\	2r	2r	1r
2E\	2c\	2e\	.
1r	2d\	4d\	2r
.	.	4B\	.
.	2e\	2c\	2g/
=13	=13	=13	=13
1D	0f	2r	2a/
.	.	2d\	2b\
1.A	.	2A/	1.cc
.	.	2.c\	.
.	[1e	.	.
.	.	4B\	.
[2E\	.	[2G/	[2b\
=14	=14	=14	=14
1E]	1e]	2G/]	2b\]
.	.	2G/	2g/
2F\	1c	2F/	2a/
2E\	.	2G/	1g
1D	1d	1A	.
.	.	.	2f#i/
=15	=15	=15	=15
2r	1.B	2r	2g/
1E	.	1G	2e/
.	.	.	2g/
2C/	2c\	2E/	2a/
2D\	1B	2F/	1b
2E\	.	2G/	.
=16	=16	=16	=16
2AA/	2A/	2E/	2.cc\
2E\	2c\	2G/	.
.	.	.	4a/
2D\	4B\	2F/	2b\
.	4A/	.	.
2C/	1A	2E/	2cc\
1BB	.	1B	1dd
.	2G#i/	.	.
=17	=17	=17	=17
0AA	0A	0c	2.cc\
.	.	.	4b\
.	.	.	4a/
.	.	.	4g/
.	.	.	2f/
2C/	1G	2c\	2e/
2BB/	.	2d\	2d/
=18	=18	=18	=18
2AA/	[0.Al	2c\	2.a/
1D	.	2.A/	.
.	.	.	4g/
.	.	.	4f/
.	.	4G/	4e/
2C/	.	4F/	1e
.	.	4E/	.
1D	.	1F	.
.	.	.	2d/
=19	=19	=19	=19
0.AAl	0.A]	0.El	0.el
!!LO:LB:i:g=z
=20||	=20||	=20||	=20||
*>B	*>B	*>B	*>B
*clefF4	*clefGv2	*clefGv2	*clefG2
*k[]	*k[]	*k[]	*k[]
*M2/1	*M2/1	*M2/1	*M2/1
*met(C|)	*met(C|)	*met(C|)	*met(C|)
!!section: Christe
!!!OMD: Christe
0r	0r	0c	0r
=21	=21	=21	=21
0r	0r	1B	0r
.	.	[1A	.
=22	=22	=22	=22
0r	0r	2A/]	0cc
.	.	4G/	.
.	.	4F/	.
.	.	2E/	.
.	.	[2e\	.
=23	=23	=23	=23
1r	0r	2e\]	1b
.	.	2d\	.
[1F	.	2c\	[1a
.	.	2B\	.
=24	=24	=24	=24
2F\]	[0c	0A	2a/]
4E\	.	.	4g/
4D\	.	.	4f/
2C/	.	.	2e/
[2F\	.	.	[2a/
=25	=25	=25	=25
2F\]	0c]	2F/	2a/]
2E\	.	2G/	2g/
2D\	.	1A	2f/
2C/	.	.	2e/
=26	=26	=26	=26
[0BB-	[0d	0B-	0f
=27	=27	=27	=27
0BB-_	0d]	1F	1.f
.	.	[1B-	.
.	.	.	4g/
.	.	.	4a/
=28	=28	=28	=28
0BB-]	0d	1B-]	2.b-\
.	.	.	4a/
.	.	1B-	2g/
.	.	.	2f/
=29	=29	=29	=29
1.C	[0c	1G	1.e
.	.	1A	.
2D\	.	.	2f/
=30	=30	=30	=30
0E	1c]	1G	0g
.	1B	1E	.
=31	=31	=31	=31
1r	1A	1F	0r
1E	[1c	1E	.
=32	=32	=32	=32
1F	2c\]	1r	1r
.	2B\	.	.
1E	1G	2r	1g
.	.	[2e\	.
=33	=33	=33	=33
1F	1r	2e\]	1a
.	.	2d\	.
1E	1G	1e	1g
=34	=34	=34	=34
1F	1A	2.c\	1.cc
.	.	4d\	.
1E	1G	4e\	.
.	.	4f\	.
.	.	2g\	2b\
=35	=35	=35	=35
1F	1c	2c\	2a/
.	.	2f\	2g/
1G	1B	2e\	[1g
.	.	2d\	.
=36	=36	=36	=36
0D	0A	0d	1g]
.	.	.	1f#i
=37	=37	=37	=37
1.E	0G	1B	[0g
.	.	2r	.
2C/	.	[2e\	.
=38	=38	=38	=38
1C	0r	2e\]	0g]
.	.	4d\	.
.	.	4c\	.
2r	.	2B\	.
[2C/	.	2c\	.
=39	=39	=39	=39
2C/]	[0G	1d	0r
2BB/	.	.	.
2C/	.	2c\	.
[2E\	.	[2g\	.
=40	=40	=40	=40
2E\]	0G]	2g\]	0r
4D\	.	4f\	.
4C/	.	4e\	.
2BB/	.	2d\	.
[2C/	.	4c\	.
.	.	4d\	.
=41	=41	=41	=41
2C/]	1G	2e\	0r
2G\	.	2d\	.
2E\	[1c	2G/	.
[2F\	.	[2A/	.
=42	=42	=42	=42
4F\]	1c]	4A/]	0r
4G\	.	4G/	.
2E\	.	1c	.
1D	1d	.	.
.	.	2B\	.
=43	=43	=43	=43
[0C	[0e	1c	0g
.	.	2r	.
.	.	[2g\	.
=44	=44	=44	=44
0C]	0e]	4g\]	1g
.	.	4f\	.
.	.	1e	.
.	.	.	[1cc
.	.	4d\	.
.	.	4c\	.
=45	=45	=45	=45
0r	0r	2e\	1cc]
.	.	2f\	.
.	.	1d	1dd
=46	=46	=46	=46
2r	0g	0c	1.ee
1c	.	.	.
4B\	.	.	4dd\
4A\	.	.	4cc\
=47	=47	=47	=47
2.G\	0g	0r	2.b\
4A\	.	.	4cc\
2B\	.	.	2dd\
[2c\	.	.	2ee\
=48	=48	=48	=48
2c\]	1f	0r	1dd
2B\	.	.	.
2c\	2e\	.	2g/
[2F\	[2f\	.	[2a/
=49	=49	=49	=49
4F\]	4f\]	0r	4a/]
4G\	4e\	.	4g/
2A\	2c\	.	1cc
1G	1d	.	.
.	.	.	2b\
=50	=50	=50	=50
1.C	[0c	1.G	0cc
2D\	.	2F/	.
=51	=51	=51	=51
2E\	0c]	2G/	0r
1F	.	1A	.
2E\	.	2G/	.
=52	=52	=52	=52
2F\	1A	2A/	0r
2C/	.	2E/	.
1D	1B	1F	.
=53	=53	=53	=53
1C	0c	1G	1.cc
1F	.	1A	.
.	.	.	2b\
=54	=54	=54	=54
1F	0r	1.c	1a
[1E	.	.	[1g
.	.	2d\	.
=55	=55	=55	=55
1E]	1.c	0e	1g]
1C	.	.	1e
.	2B\	.	.
=56	=56	=56	=56
1D	1A	1d	1f
[1E	[1G	1B	1g
=57	=57	=57	=57
2E\]	1G]	0c	1.e
2AA/	.	.	.
[1AA	1E	.	.
.	.	.	4f/
.	.	.	4g/
=58	=58	=58	=58
1AA]	1F	1c	1a
[1E	1G	1B	[1g
=59	=59	=59	=59
2E\]	1.E	1c	2g/]
2AA/	.	.	4a/
.	.	.	4b\
[1AA	.	[1e	[1cc
.	4F/	.	.
.	4G/	.	.
=60	=60	=60	=60
1AA]	1A	1e]	1cc]
[1E	1G	1e	[1b
=61	=61	=61	=61
1E]	2r	1B	2b\]
.	1G	.	4cc\
.	.	.	4dd\
1E	.	[1g	[1ee
.	4A/	.	.
.	4B\	.	.
=62	=62	=62	=62
1C	1c	2g\]	1ee]
.	.	2f\	.
1G	[1B	2e\	2r
.	.	2d\	[2dd\
=63	=63	=63	=63
1.G	2B\]	[0g	2dd\]
.	4c\	.	2cc\
.	4d\	.	.
.	[1e	.	2b\
2F\	.	.	2a/
=64	=64	=64	=64
2E\	1e]	0g]	2g/
2D\	.	.	2f/
2C/	1r	.	[1e
2BB/	.	.	.
=65	=65	=65	=65
2AA/	2r	0r	1e]
1E	1g	.	.
.	.	.	2e/
2D\	2f\	.	2f/
=66	=66	=66	=66
1E	2e\	1r	2g/
.	2d\	.	1a
1E	2c\	1e	.
.	2B\	.	2g#i/
=67	=67	=67	=67
1F	1A	1c	0a
1D	2r	[1f	.
.	[2d\	.	.
=68	=68	=68	=68
2r	2d\]	2f\]	0r
1G	2c\	2e\	.
.	2B\	1d	.
2F\	2A/	.	.
=69	=69	=69	=69
2E\	2G/	1g	0r
2D\	2F/	.	.
2C/	[1E	4g\	.
.	.	4f\	.
2BB/	.	4e\	.
.	.	4d\	.
=70	=70	=70	=70
1.AA	1E]	1c	2r
.	.	.	1cc
.	[1E	[1e	.
2BB/	.	.	2b\
=71	=71	=71	=71
1C	1E]	1e]	2a/
.	.	.	2g/
[1D	[1A	1d	2f/
.	.	.	2e/
=72	=72	=72	=72
2D\]	2A/]	2r	1d
2BB/	2G/	2d\	.
1C	1E	2c\	[1e
.	.	2A/	.
=73	=73	=73	=73
0D	0F	1B	2e/]
.	.	.	4d/
.	.	.	4c/
.	.	1A	2d/
.	.	.	2a/
=74	=74	=74	=74
2r	[0El	0e	2b\
2.AA/	.	.	1cc
4BB/	.	.	.
4C/	.	.	4b\
4D\	.	.	4a/
=75	=75	=75	=75
2E\	0E_	0r	2g/
2F\	.	.	2a/
2.G\	.	.	1b
4A\	.	.	.
=76	=76	=76	=76
2B\	0E_	1r	[0el
1c	.	.	.
.	.	2r	.
4B\	.	[2c\	.
4A\	.	.	.
=77	=77	=77	=77
2G\	0E_	2c\]	0e_
2A\	.	4B\	.
.	.	4A/	.
1B	.	2G/	.
.	.	2A/	.
=78	=78	=78	=78
[0El	0E_	2B\	0e_
.	.	2E/	.
.	.	1B	.
=79	=79	=79	=79
0E]	0E]	1c	0e]
.	.	1Bl	.
!!LO:LB:i:g=z
=80||	=80||	=80||	=80||
*>C	*>C	*>C	*>C
*clefF4	*clefGv2	*clefGv2	*clefG2
*k[]	*k[]	*k[]	*k[]
*M3/1	*M3/1	*M3/1	*M3/1
*met(O)	*met(O)	*met(O)	*met(O)
!!section: Kyrie II
!!!OMD: Kyrie II
1C	1.c	1e	1.g
1E	.	2c\	.
.	2G/	2B\	2e/
1D	2A/	1d	1f
.	2B\	.	.
=81	=81	=81	=81
1C	2.c\	2G/	2.e/
.	.	2A/	.
.	4d\	.	4f/
2r	0e	2G/	4g/
.	.	.	4a/
1G	.	1E	1b
2E\	.	[2e\	4a/
.	.	.	4g/
=82	=82	=82	=82
1F	1r	2e\]	1a
.	.	2d\	.
1E	1e	2B\	2r
.	.	2c\	2g/
2r	1d	2B\	2.g/
2G\	.	2G/	.
.	.	.	4a/
=83	=83	=83	=83
2.G\	0g	2.d\	4b\
.	.	.	4cc\
.	.	.	1dd
4A\	.	4c\	.
2B\	.	2d\	.
2c\	.	2e\	4cc\
.	.	.	4b\
1A	2f\	1c	1cc
.	2e\	.	.
=84	=84	=84	=84
1G	0g	2d\	1.b
.	.	2B\	.
2r	.	2d\	.
2E\	.	1e	2g/
2.E\	1r	.	2.g/
.	.	4d\	.
4F\	.	4c\	4a/
=85	=85	=85	=85
2G\	0.r	2B\	2b\
2A\	.	2A/	2cc\
1F	.	2c\	1a
.	.	2d\	.
[1E	.	2G/	1g
.	.	2c\	.
=86	=86	=86	=86
1E]	0.r	2B\	2.e/
.	.	1e	.
.	.	.	4f/
1r	.	.	2g/
.	.	4d\	2a/
.	.	4c\	.
1r	.	1d	1f
=87	=87	=87	=87
2.E\	0.r	1e	1.e
4F\	.	.	.
2G\	.	1r	.
2A\	.	.	4d/
.	.	.	4c/
2.F\	.	1r	1d
4E\	.	.	.
=88	=88	=88	=88
1C	[0.c	0.r	2r
.	.	.	2e/
2F\	.	.	2f/
2E\	.	.	2g/
2F\	.	.	2a/
2G\	.	.	4g/
.	.	.	4f/
=89	=89	=89	=89
2A\	0c]	0.r	2e/
4G\	.	.	2a/
4F\	.	.	.
2E\	.	.	2g/
2A\	.	.	2f/
2G\	1d	.	2g/
2F\	.	.	2a/
=90	=90	=90	=90
2G\	0.d	0.r	2b-i\
2A\	.	.	4a/
.	.	.	4g/
2B-\	.	.	2f/
4A\	.	.	2g/
4G\	.	.	.
2F\	.	.	2a/
2G\	.	.	2b\
=91	=91	=91	=91
2A\	0c	0.r	2.cc\
2B\	.	.	.
.	.	.	4b\
2.c\	.	.	1.g
4B\	.	.	.
[1G	[1B	.	.
.	.	.	4f/
.	.	.	4e/
=92	=92	=92	=92
2G\]	0.B]	1r	0d
4F\	.	.	.
4E\	.	.	.
2D\	.	1r	.
2.G\	.	.	.
.	.	2r	1d
4F\	.	.	.
4E\	.	[2g\	.
4D\	.	.	.
=93	=93	=93	=93
1C	2.c\	4g\]	2.e/
.	.	4f\	.
.	.	4e\	.
.	4d\	4d\	4f/
1r	2e\	2c\	2g/
.	2f\	2F/	2a/
1G	1d	2G/	1b
.	.	2g\	.
=94	=94	=94	=94
2A\	0c	2e\	0cc
2.c\	.	1a	.
4B\	.	.	.
4A\	.	1g	.
4G\	.	.	.
1A	1c	.	1cc
.	.	2f#i\	.
=95	=95	=95	=95
2G\	1d	2g\	2b\
2D\	.	2f\	2.dd\
2.G\	1B	2d\	.
.	.	.	4cc\
.	.	2.g\	4b\
4F\	.	.	4a/
4E\	1c	.	2g/
4D\	.	4f\	.
2C/	.	[2e\	2cc\
=96	=96	=96	=96
2G\	1d	4e\]	2b\
.	.	4d\	.
2D\	.	1d	1a
1E	1G	.	.
.	.	2c\	1g
1D	1A	[1dl	.
.	.	.	2f#i/
=97	=97	=97	=97
0.Gl	0.Gl	0.d]	0.gl
==	==	==	==
*-	*-	*-	*-
!!!RDF**kern: l=long note in original notation
!!!RDF**kern: i=editorial accidental
!!!RDF**kern: V=start of tuplet marker
!!!RDF**kern: Z=end of tuplet marker
!!!ENC:	Jesse Rodin; Chris Gage 10-25-2012
!!!END:	2012/11/09/
!!!EED:	Jesse Rodin
!!!EEV:	2012/12/15/
!!!ONB:	Translated from MusicXML and edited on 2012/12/15/ by Craig Sapp
!!muse2ps: T^@{OPR}^u^@{ONM}{. }@{OTL}^C^@{COM}^i2I150v85,85,85,150c160
